Dominus_Dark_Funeral/22/apps/xhydra.svg

<svg xmlns="http://www.w3.org/2000/svg" width="24" height="24"><path d="M8.813.794c-.355.03-.487.084-.621.255-.144.182-.267.225-.791.274-.398.036-.68.11-.786.205-.206.183-.4.629-.4.918 0 .206.02.215.334.165.186-.03.473-.008.646.049.255.084.294.126.213.225-.058.07-.257.05-.475.05-.437 0-.482.122-.179.476l.197.23.337-.182c.384-.205.655-.157.926-.005.102.058.566.127 1.03.153.79.044.581.063.772.285.123.144.294.346.293.512 0 .56-.392 1.552-1.553 2.932-.587.7-.703 1.98-.704 2.318-.001.103-.038.209-.081.236-.086.052-.139-.27-.22-1.324-.078-1.046-.274-1.63-.724-2.095-.264-.273-.51-.436-.756-.502-.43-.114-.455-.202-.105-.347.141-.059.257-.14.257-.18 0-.105-.392-.19-.645-.141-.26.048-.266.003-.032-.246.459-.489-.323-.376-1.134.164-.727.486-1.172.984-1.24 1.345-.042.227-.178.425-.484.707-.566.523-.694.787-.621 1.274.105.71.187.767.518.374.207-.248.688-.504.777-.415.086.086-.137.393-.396.547-.328.194-.325.33.01.448.32.111.379.081.56-.275.206-.412.45-.644.793-.755.17-.054.49-.268.712-.474.222-.205.445-.373.496-.373.176 0 .502.41.59.74.048.183.13.908.182 1.612.16 2.17.377 2.477 1.167 4.197.253.552.46 1.06.46 1.127 0 .09-.662.136-1.165.18-1.19.104-1.689.508-1.775 1.439-.032.335-.002.53.112.749.238.45.38.442.316-.02-.054-.394.09-.647.195-.344.08.222.383.54.517.54.135 0 .137-.012.03-.294-.094-.247-.037-.271.203-.09.229.173.306.09.247-.273-.093-.572.82-1.069 1.905-.747.528.156.673.17.906.086.444-.16 1.075-.123 1.365.122.29.245.054.887-.149 1.178-.207.296-.531.421-1.343.52-.41.05-.837.151-.95.225a.979.979 0 0 0-.4.735c0 .225.102.211.326-.046.102-.119.263-.214.358-.214.215 0 .216.045.001.319-.154.196-.244.709-.122.709.026 0 .174-.135.33-.3.155-.165.365-.3.466-.3.213 0 .224.065.051.294-.13.171-.176.737-.06.732.034-.003.14-.127.235-.278.162-.258.364-.389 1.042-.675.15-.064.723-.591 1.271-1.172.981-1.037.969-1.062.941-1.414l-.028-.36.994-.104c.88-.314 1.347-.34 1.86-.074.68.352 1.321.963 1.228 1.537-.068.423-.3 1.224-.888 1.281-1.395-.027-3.341.869-3.122 2.17.181.874 1.314 1.454 2.45 1.713.358.081.836.109 1.436.083 1.504-.064 2.466-.14 3.272-.97.295-.302.674-1.025.813-1.378l.748.407v-1.962l-1.95.856 1.021.59c-.12.1-.278.343-.457.527-.791.819-1.334.816-2.324.95-.812.11-1.702-.005-2.256-.25-.454-.201-.805-.635-.805-.959 0-.304.363-.582.8-.596 1.183-.04 1.404-.148 1.404-.148.852-.26 1.659-1.74 1.659-2.673 0-.237.037-.53.083-.65.068-.179.029-.332-.213-.835-.2-.419-.277-.489-.242-.63.043-.17-.036-.297-.45-.714-.447-.454-.49-.668-.397-.819a.817.817 0 0 0 .105-.211c0-.024-.222-.155-.493-.293a5.03 5.03 0 0 1-.703-.42c-.183-.148-.197-.19-.095-.312.063-.077.094-.162.067-.19-.028-.028-.35-.106-.716-.176-.826-.156-.954-.223-.988-.52-.015-.13-.056-.232-.094-.228-.036.004-.447.077-.912.163-.913.168-1.121.145-1.121-.125 0-.222.002-.223-.569.082-.934.5-1.692.193-1.458-.591.06-.198.22-.522.355-.72.546-.794 1.585-1.047 3.496-1.135 1.065-.048 1.544-.096 1.857-.238.493-.222 1.625-1.007 1.837-1.4.09-.168.194-.306.23-.306.18 0 .41-.365.41-.65 0-.384.176-.356.28.046.104.398.28.203.269-.3-.01-.426.053-.475.245-.19.207.31.275.104.157-.472-.114-.556-.858-1.913-1.165-2.303-.097-.124-.87-.247-1-.274-.181-.037-.42-.187-.68-.619-.194-.325-.446-.625-.587-.7-.221-.115-.284-.113-.622.016-.41.156-.447.22-.234.397.171.142.459.794.459 1.038 0 .176-.003.177-.18.017-.097-.089-.372-.298-.442-.464-.122-.288-.133-.295-.25-.135a.641.641 0 0 0 .135.907c.286.204.545.652.64 1.114a2.176 2.176 0 0 0 .225.567c.334.552.27 1.84-.245 2.085-.18.085-.757.161-1.645.218-2.041.13-2.97.393-3.949 1.355-.468.46-.499.478-.443.244.089-.374.127-.876.975-1.983C11.86 5.823 12 5.482 12 4.463c-.003-.871-.401-1.863-1.325-2.612-.19-.132-.324-.274-.3-.315.027-.04.204-.075.393-.075.402 0 .41-.132.022-.36C10.467.914 9.395.747 8.813.795z" fill="#e6e6e6"/></svg>

<?xml version="1.0" encoding="UTF-8" standalone="no"?>
<svg
   xmlns:dc="http://purl.org/dc/elements/1.1/"
   xmlns:cc="http://creativecommons.org/ns#"
   xmlns:rdf="http://www.w3.org/1999/02/22-rdf-syntax-ns#"
   xmlns:svg="http://www.w3.org/2000/svg"
   xmlns="http://www.w3.org/2000/svg"
   xmlns:sodipodi="http://sodipodi.sourceforge.net/DTD/sodipodi-0.dtd"
   xmlns:inkscape="http://www.inkscape.org/namespaces/inkscape"
   width="24"
   height="24"
   version="1.1"
   id="svg4"
   sodipodi:docname="xhydra.svg"
   inkscape:version="0.92.4 (5da689c313, 2019-01-14)">
  <metadata
     id="metadata10">
    <rdf:RDF>
      <cc:Work
         rdf:about="">
        <dc:format>image/svg+xml</dc:format>
        <dc:type
           rdf:resource="http://purl.org/dc/dcmitype/StillImage" />
        <dc:title></dc:title>
      </cc:Work>
    </rdf:RDF>
  </metadata>
  <defs
     id="defs8" />
  <sodipodi:namedview
     pagecolor="#ffffff"
     bordercolor="#666666"
     borderopacity="1"
     objecttolerance="10"
     gridtolerance="10"
     guidetolerance="10"
     inkscape:pageopacity="0"
     inkscape:pageshadow="2"
     inkscape:window-width="1138"
     inkscape:window-height="480"
     id="namedview6"
     showgrid="false"
     inkscape:zoom="9.8333333"
     inkscape:cx="1.0677966"
     inkscape:cy="12"
     inkscape:window-x="0"
     inkscape:window-y="25"
     inkscape:window-maximized="0"
     inkscape:current-layer="svg4" />
  <path
     d="M 8.813,0.794 C 8.458,0.824 8.326,0.878 8.192,1.049 8.048,1.231 7.925,1.274 7.401,1.323 7.003,1.359 6.721,1.433 6.615,1.528 c -0.206,0.183 -0.4,0.629 -0.4,0.918 0,0.206 0.02,0.215 0.334,0.165 C 6.735,2.581 7.022,2.603 7.195,2.66 7.45,2.744 7.489,2.786 7.408,2.885 7.35,2.955 7.151,2.935 6.933,2.935 6.496,2.935 6.451,3.057 6.754,3.411 L 6.951,3.641 7.288,3.459 C 7.672,3.254 7.943,3.302 8.214,3.454 c 0.102,0.058 0.566,0.127 1.03,0.153 0.79,0.044 0.581,0.063 0.772,0.285 0.123,0.144 0.294,0.346 0.293,0.512 0,0.56 -0.392,1.552 -1.553,2.932 C 8.169,8.036 8.053,9.316 8.052,9.654 8.051,9.757 8.014,9.863 7.971,9.89 7.885,9.942 7.832,9.62 7.751,8.566 7.673,7.52 7.477,6.936 7.027,6.471 6.763,6.198 6.517,6.035 6.271,5.969 5.841,5.855 5.816,5.767 6.166,5.622 6.307,5.563 6.423,5.482 6.423,5.442 6.423,5.337 6.031,5.252 5.778,5.301 5.518,5.349 5.512,5.304 5.746,5.055 6.205,4.566 5.423,4.679 4.612,5.219 3.885,5.705 3.44,6.203 3.372,6.564 3.33,6.791 3.194,6.989 2.888,7.271 2.322,7.794 2.194,8.058 2.267,8.545 2.372,9.255 2.454,9.312 2.785,8.919 2.992,8.671 3.473,8.415 3.562,8.504 3.648,8.59 3.425,8.897 3.166,9.051 2.838,9.245 2.841,9.381 3.176,9.499 3.496,9.61 3.555,9.58 3.736,9.224 3.942,8.812 4.186,8.58 4.529,8.469 4.699,8.415 5.019,8.201 5.241,7.995 5.463,7.79 5.686,7.622 5.737,7.622 c 0.176,0 0.502,0.41 0.59,0.74 0.048,0.183 0.13,0.908 0.182,1.612 0.16,2.17 0.377,2.477 1.167,4.197 0.253,0.552 0.46,1.06 0.46,1.127 0,0.09 -0.662,0.136 -1.165,0.18 -1.19,0.104 -1.689,0.508 -1.775,1.439 -0.032,0.335 -0.002,0.53 0.112,0.749 0.238,0.45 0.38,0.442 0.316,-0.02 -0.054,-0.394 0.09,-0.647 0.195,-0.344 0.08,0.222 0.383,0.54 0.517,0.54 0.135,0 0.137,-0.012 0.03,-0.294 -0.094,-0.247 -0.037,-0.271 0.203,-0.09 0.229,0.173 0.306,0.09 0.247,-0.273 -0.093,-0.572 0.82,-1.069 1.905,-0.747 0.528,0.156 0.673,0.17 0.906,0.086 0.444,-0.16 1.075,-0.123 1.365,0.122 0.29,0.245 0.054,0.887 -0.149,1.178 -0.207,0.296 -0.531,0.421 -1.343,0.52 -0.41,0.05 -0.837,0.151 -0.95,0.225 a 0.979,0.979 0 0 0 -0.4,0.735 c 0,0.225 0.102,0.211 0.326,-0.046 0.102,-0.119 0.263,-0.214 0.358,-0.214 0.215,0 0.216,0.045 0.001,0.319 -0.154,0.196 -0.244,0.709 -0.122,0.709 0.026,0 0.174,-0.135 0.33,-0.3 0.155,-0.165 0.365,-0.3 0.466,-0.3 0.213,0 0.224,0.065 0.051,0.294 -0.13,0.171 -0.176,0.737 -0.06,0.732 0.034,-0.003 0.14,-0.127 0.235,-0.278 0.162,-0.258 0.364,-0.389 1.042,-0.675 0.15,-0.064 0.723,-0.591 1.271,-1.172 0.981,-1.037 0.969,-1.062 0.941,-1.414 l -0.028,-0.36 0.994,-0.104 c 0.88,-0.314 1.347,-0.34 1.86,-0.074 0.68,0.352 1.321,0.963 1.228,1.537 -0.068,0.423 -0.3,1.224 -0.888,1.281 -1.395,-0.027 -3.341,0.869 -3.122,2.17 0.181,0.874 1.314,1.454 2.45,1.713 0.358,0.081 0.836,0.109 1.436,0.083 1.504,-0.064 2.466,-0.14 3.272,-0.97 0.295,-0.302 0.674,-1.025 0.813,-1.378 l 0.748,0.407 v -1.962 l -1.95,0.856 1.021,0.59 c -0.12,0.1 -0.278,0.343 -0.457,0.527 -0.791,0.819 -1.334,0.816 -2.324,0.95 -0.812,0.11 -1.702,-0.005 -2.256,-0.25 -0.454,-0.201 -0.805,-0.635 -0.805,-0.959 0,-0.304 0.363,-0.582 0.8,-0.596 1.183,-0.04 1.404,-0.148 1.404,-0.148 0.852,-0.26 1.659,-1.74 1.659,-2.673 0,-0.237 0.037,-0.53 0.083,-0.65 0.068,-0.179 0.029,-0.332 -0.213,-0.835 -0.2,-0.419 -0.277,-0.489 -0.242,-0.63 0.043,-0.17 -0.036,-0.297 -0.45,-0.714 -0.447,-0.454 -0.49,-0.668 -0.397,-0.819 A 0.817,0.817 0 0 0 17.73,13.74 c 0,-0.024 -0.222,-0.155 -0.493,-0.293 a 5.03,5.03 0 0 1 -0.703,-0.42 c -0.183,-0.148 -0.197,-0.19 -0.095,-0.312 0.063,-0.077 0.094,-0.162 0.067,-0.19 -0.028,-0.028 -0.35,-0.106 -0.716,-0.176 -0.826,-0.156 -0.954,-0.223 -0.988,-0.52 -0.015,-0.13 -0.056,-0.232 -0.094,-0.228 -0.036,0.004 -0.447,0.077 -0.912,0.163 -0.913,0.168 -1.121,0.145 -1.121,-0.125 0,-0.222 0.002,-0.223 -0.569,0.082 -0.934,0.5 -1.692,0.193 -1.458,-0.591 0.06,-0.198 0.22,-0.522 0.355,-0.72 0.546,-0.794 1.585,-1.047 3.496,-1.135 1.065,-0.048 1.544,-0.096 1.857,-0.238 0.493,-0.222 1.625,-1.007 1.837,-1.4 0.09,-0.168 0.194,-0.306 0.23,-0.306 0.18,0 0.41,-0.365 0.41,-0.65 0,-0.384 0.176,-0.356 0.28,0.046 0.104,0.398 0.28,0.203 0.269,-0.3 -0.01,-0.426 0.053,-0.475 0.245,-0.19 0.207,0.31 0.275,0.104 0.157,-0.472 C 19.67,5.209 18.926,3.852 18.619,3.462 18.522,3.338 17.749,3.215 17.619,3.188 17.438,3.151 17.199,3.001 16.939,2.569 16.745,2.244 16.493,1.944 16.352,1.869 16.131,1.754 16.068,1.756 15.73,1.885 c -0.41,0.156 -0.447,0.22 -0.234,0.397 0.171,0.142 0.459,0.794 0.459,1.038 0,0.176 -0.003,0.177 -0.18,0.017 C 15.678,3.248 15.403,3.039 15.333,2.873 15.211,2.585 15.2,2.578 15.083,2.738 a 0.641,0.641 0 0 0 0.135,0.907 c 0.286,0.204 0.545,0.652 0.64,1.114 a 2.176,2.176 0 0 0 0.225,0.567 c 0.334,0.552 0.27,1.84 -0.245,2.085 -0.18,0.085 -0.757,0.161 -1.645,0.218 -2.041,0.13 -2.97,0.393 -3.949,1.355 C 9.776,9.444 9.745,9.462 9.801,9.228 9.89,8.854 9.928,8.352 10.776,7.245 11.86,5.823 12,5.482 12,4.463 11.997,3.592 11.599,2.6 10.675,1.851 c -0.19,-0.132 -0.324,-0.274 -0.3,-0.315 0.027,-0.04 0.204,-0.075 0.393,-0.075 0.402,0 0.41,-0.132 0.022,-0.36 C 10.467,0.914 9.395,0.747 8.813,0.795 Z"
     id="path2"
     inkscape:connector-curvature="0"
     style="fill:#e6e6e6" />
</svg>
